static/assets/images/networks/heco.svg

<svg xmlns="http://www.w3.org/2000/svg" fill="none" viewBox="0 0 512 512"><path fill="#5CC538" d="M256 512c141.385 0 256-114.615 256-256S397.385 0 256 0 0 114.615 0 256s114.615 256 256 256"/><path fill="#fff" d="M385.363 104.469c1.92 1.312 4.037 2.415 5.717 3.984 2.791 2.592 4.166 5.975 4.166 9.822q0 49.238.018 98.478c0 6.576-.689 13.074-1.767 19.557a125.8 125.8 0 0 1-19.112 48.505 136 136 0 0 1-13.977 17.617c-8.286 8.917-17.767 16.347-28.198 22.555-8.538 5.082-17.525 9.266-27.102 11.98-5.909 1.671-11.931 2.968-17.969 4.185-7.154 1.449-14.425 1.575-21.712 1.548-16.899-.066-33.798-.021-50.7-.021h-1.974v-1.826c0-12.554-.051-25.108.024-37.661a35.9 35.9 0 0 1 2.914-13.771c2.054-4.881 4.908-9.266 8.78-12.882 5.714-5.341 12.381-8.812 20.182-10.094 6.04-.995 12.102-.49 18.151-.529 8.55-.057 16.699-1.677 24.41-5.422a57 57 0 0 0 13.159-8.767 53.2 53.2 0 0 0 15.944-25.337 54.8 54.8 0 0 0 1.982-11.107c.396-5.291.357-10.62.363-15.935q.039-46.47 0-92.957c0-.649-.018-1.294-.024-1.943z"/><path fill="#fff" d="M116.736 289.188c.198-1.527.374-3.058.599-4.582.716-4.782 1.276-9.624 2.216-14.38a99.2 99.2 0 0 1 6.588-21.183 203 203 0 0 1 9.614-18.69c2.545-4.418 5.573-8.602 8.735-12.619 4.579-5.814 9.787-11.06 15.294-16.033a124 124 0 0 1 16.42-12.452c7.948-5.082 16.316-9.344 25.246-12.363 5.717-1.931 11.566-3.515 17.42-4.995a71 71 0 0 1 10.009-1.629c18.313-1.901 36.685-.526 55.025-.896 5.028-.105 10.059-.015 15.234-.015.027.553.072 1.028.072 1.494 0 13.098.09 26.199-.045 39.3-.045 4.339-1.228 8.527-2.92 12.553a37 37 0 0 1-9.259 13.286c-5.538 5.034-12.021 8.31-19.493 9.565-6.035 1.019-12.099.535-18.148.541-12.027.015-23 3.288-32.811 10.228a55.36 55.36 0 0 0-22.232 34.705 49 49 0 0 0-.956 8.941q-.096 53.421-.039 106.844c0 .248.015.496.027.744h-66.713a4.1 4.1 0 0 0-.881-.652c-2.995-1.195-5.339-3.15-6.825-5.978-.898-1.694-1.467-3.533-2.177-5.326zM183.147 104.469c1.626 1.01 3.345 1.901 4.858 3.055 2.833 2.158 4.441 5.135 4.962 8.629.229 1.764.329 3.542.299 5.32q.036 17.853 0 35.707v1.515c-5.785 2.69-11.499 5.12-17.004 7.954a128.2 128.2 0 0 0-23.266 15.235c-3.734 3.096-7.328 6.369-10.895 9.66a123.4 123.4 0 0 0-17.938 20.869c-2.267 3.288-4.36 6.695-6.55 10.04a8.5 8.5 0 0 1-.877.978V104.469zM328.835 407.552c-1.548-.95-3.175-1.793-4.633-2.875-2.917-2.149-4.537-5.159-5.187-8.668a22 22 0 0 1-.299-3.976 9617 9617 0 0 1 0-37.213v-1.727c32.807-12.733 58.199-34.128 76.53-64.204v118.663z"/></svg>

<svg width="512" height="512" viewBox="0 0 512 512" fill="none" xmlns="http://www.w3.org/2000/svg">
<path d="M256 512C397.385 512 512 397.385 512 256C512 114.615 397.385 0 256 0C114.615 0 0 114.615 0 256C0 397.385 114.615 512 256 512Z" fill="#5CC538"/>
<path d="M385.363 104.469C387.283 105.781 389.4 106.884 391.08 108.453C393.871 111.045 395.246 114.428 395.246 118.275C395.246 151.1 395.252 183.926 395.264 216.753C395.264 223.329 394.575 229.827 393.497 236.31C390.585 253.632 384.075 270.154 374.385 284.815C370.221 291.062 365.546 296.955 360.408 302.432C352.122 311.349 342.641 318.779 332.21 324.987C323.672 330.069 314.685 334.253 305.108 336.967C299.199 338.638 293.177 339.935 287.139 341.152C279.985 342.601 272.714 342.727 265.427 342.7C248.528 342.634 231.629 342.679 214.727 342.679H212.753V340.853C212.753 328.299 212.702 315.745 212.777 303.192C212.829 298.455 213.82 293.775 215.691 289.421C217.745 284.54 220.599 280.155 224.471 276.539C230.185 271.198 236.852 267.727 244.653 266.445C250.693 265.45 256.755 265.955 262.804 265.916C271.354 265.859 279.503 264.239 287.214 260.494C291.987 258.196 296.416 255.245 300.373 251.727C308.007 244.978 313.54 236.184 316.317 226.39C317.358 222.765 318.023 219.043 318.299 215.283C318.695 209.992 318.656 204.663 318.662 199.348C318.688 168.368 318.688 137.383 318.662 106.391C318.662 105.742 318.644 105.097 318.638 104.448L385.363 104.469Z" fill="white"/>
<path d="M116.736 289.188C116.934 287.661 117.11 286.13 117.335 284.606C118.051 279.824 118.611 274.982 119.551 270.226C120.948 262.942 123.158 255.836 126.139 249.043C129.019 242.652 132.228 236.414 135.753 230.353C138.298 225.935 141.326 221.751 144.488 217.734C149.067 211.92 154.275 206.674 159.782 201.701C164.9 197.103 170.393 192.938 176.202 189.249C184.15 184.167 192.518 179.905 201.448 176.886C207.165 174.955 213.014 173.371 218.868 171.891C222.161 171.11 225.506 170.566 228.877 170.262C247.19 168.361 265.562 169.736 283.902 169.366C288.93 169.261 293.961 169.351 299.136 169.351C299.163 169.904 299.208 170.379 299.208 170.845C299.208 183.943 299.298 197.044 299.163 210.145C299.118 214.484 297.935 218.672 296.243 222.698C294.177 227.755 291.015 232.292 286.984 235.984C281.446 241.018 274.963 244.294 267.491 245.549C261.456 246.568 255.392 246.084 249.343 246.09C237.316 246.105 226.343 249.378 216.532 256.318C204.925 264.602 196.963 277.032 194.3 291.023C193.707 293.968 193.387 296.961 193.344 299.964C193.28 335.578 193.267 371.193 193.305 406.808C193.305 407.056 193.32 407.304 193.332 407.552H126.619C126.356 407.297 126.059 407.077 125.738 406.9C122.743 405.705 120.399 403.75 118.913 400.922C118.015 399.228 117.446 397.389 116.736 395.596V289.188Z" fill="white"/>
<path d="M183.147 104.469C184.773 105.479 186.492 106.37 188.005 107.524C190.838 109.682 192.446 112.659 192.967 116.153C193.196 117.917 193.296 119.695 193.266 121.473C193.29 133.375 193.29 145.278 193.266 157.18V158.695C187.481 161.385 181.767 163.815 176.262 166.649C167.976 170.869 160.175 175.978 152.996 181.884C149.262 184.98 145.668 188.253 142.101 191.544C135.361 197.811 129.344 204.811 124.163 212.413C121.896 215.701 119.803 219.108 117.613 222.453C117.347 222.801 117.053 223.128 116.736 223.431V104.469H183.147Z" fill="white"/>
<path d="M328.835 407.552C327.287 406.602 325.66 405.759 324.202 404.677C321.285 402.528 319.665 399.518 319.015 396.009C318.795 394.695 318.695 393.365 318.716 392.033C318.692 379.629 318.692 367.225 318.716 354.82V353.093C351.523 340.36 376.915 318.965 395.246 288.889V407.552H328.835Z" fill="white"/>
</svg>
